X:495
T:Highland Laddie,The. RH.495
R:jig march
S:Rev.R.Harrison’s MS,c1815,Cumbria
N:The MS has a leading D. PJH.
O:England
A:Temple Sowerby,Cumbria
Z:vmp.Simon Wilson. Review PJH, 2008.
M:6/8
L:1/8
Q:3/8=100
K:D
(D>E)D (F>GF)|A>BA {de}f2d|\
dAF (G>AB)|(A>G)F F>ED|!
(D>E)D A>BA|(d>e)d {fg}a2d|\
(f>d)A (B>c)d|A>BAF2D:|!
|:F2G Ad2|(f>ed) eAA|\
FAf{f} e2d|c2d eAA|!
F2d{d} c2B|A2{e/f/} gf2e|\
(f>e)d B>cd|A>BA FD2|]

